Adwaita++-Dark/actions/16/system-run.svg

<svg height="16" width="16" xmlns="http://www.w3.org/2000/svg">
  <g fill="#e6ddff">
    <path d="m7.76 5.993-.11 1.317a3.9286 3.9286 0 0 0 -1.15.664l-1.2-.563-1.25 2.165 1.09.755a3.9286 3.9286 0 0 0 -.06.662 3.9286 3.9286 0 0 0 .06.666l-1.09.752 1.25 2.165 1.2-.562a3.9286 3.9286 0 0 0 1.15.66l.11 1.319h2.5l.11-1.317a3.9286 3.9286 0 0 0 1.15-.664l1.19.564 1.25-2.165-1.08-.755a3.9286 3.9286 0 0 0 .06-.663 3.9286 3.9286 0 0 0 -.06-.665l1.08-.752-1.25-2.165-1.19.562a3.9286 3.9286 0 0 0 -1.15-.66l-.11-1.32zm1.25 3.572a1.4286 1.4286 0 0 1 1.43 1.428 1.4286 1.4286 0 0 1 -1.43 1.429 1.4286 1.4286 0 0 1 -1.43-1.429 1.4286 1.4286 0 0 1 1.43-1.428z"/>
    <path d="m7.19 6.263-.34-.718a2.3571 2.3571 0 0 0 .4-.689l.79-.066v-1.501l-.79-.066a2.3571 2.3571 0 0 0 -.17-.362 2.3571 2.3571 0 0 0 -.23-.329l.34-.716-1.3-.75-.45.651a2.3571 2.3571 0 0 0 -.8.002l-.45-.653-1.3.75.34.717a2.3571 2.3571 0 0 0 -.4.69l-.79.066v1.5l.79.066a2.3571 2.3571 0 0 0 .17.363 2.3571 2.3571 0 0 0 .23.328l-.34.716 1.3.75.45-.65a2.3571 2.3571 0 0 0 .8-.002l.45.653zm-1.72-1.481a.85714.85714 0 0 1 -1.17-.314.85714.85714 0 0 1 .31-1.171.85714.85714 0 0 1 1.17.314.85714.85714 0 0 1 -.31 1.171z"/>
  </g>
</svg>

<svg xmlns="http://www.w3.org/2000/svg" width="16" height="16" version="1.1">
 <path style="fill:#E6DDFF" d="M 7.76,5.993 7.65,7.31 A 3.9286,3.9286 0 0 0 6.5,7.974 L 5.3,7.411 4.05,9.576 5.14,10.331 A 3.9286,3.9286 0 0 0 5.08,10.993 3.9286,3.9286 0 0 0 5.14,11.659 L 4.05,12.411 5.3,14.576 6.5,14.014 A 3.9286,3.9286 0 0 0 7.65,14.674 L 7.76,15.993 H 10.26 L 10.37,14.676 A 3.9286,3.9286 0 0 0 11.52,14.012 L 12.71,14.576 13.96,12.411 12.88,11.656 A 3.9286,3.9286 0 0 0 12.94,10.993 3.9286,3.9286 0 0 0 12.88,10.328 L 13.96,9.576 12.71,7.411 11.52,7.973 A 3.9286,3.9286 0 0 0 10.37,7.313 L 10.26,5.993 Z M 9.01,9.565 A 1.4286,1.4286 0 0 1 10.44,10.993 1.4286,1.4286 0 0 1 9.01,12.422 1.4286,1.4286 0 0 1 7.58,10.993 1.4286,1.4286 0 0 1 9.01,9.565 Z"/>
 <path style="fill:#E6DDFF" d="M 7.19,6.263 6.85,5.545 A 2.3571,2.3571 0 0 0 7.25,4.856 L 8.04,4.79 V 3.289 L 7.25,3.223 A 2.3571,2.3571 0 0 0 7.08,2.861 2.3571,2.3571 0 0 0 6.85,2.532 L 7.19,1.816 5.89,1.066 5.44,1.717 A 2.3571,2.3571 0 0 0 4.64,1.719 L 4.19,1.066 2.89,1.816 3.23,2.533 A 2.3571,2.3571 0 0 0 2.83,3.223 L 2.04,3.289 V 4.789 L 2.83,4.855 A 2.3571,2.3571 0 0 0 3,5.218 2.3571,2.3571 0 0 0 3.23,5.546 L 2.89,6.262 4.19,7.012 4.64,6.362 A 2.3571,2.3571 0 0 0 5.44,6.36 L 5.89,7.013 Z M 5.47,4.782 A 0.85714,0.85714 0 0 1 4.3,4.468 0.85714,0.85714 0 0 1 4.61,3.297 0.85714,0.85714 0 0 1 5.78,3.611 0.85714,0.85714 0 0 1 5.47,4.782 Z"/>
</svg>
